X:1
T:Полёт шмеля
T:Полёт шмеля
T:Никола́й Ри́мский-Ко́рсаков
T:Гвидон спускается с берега в море. Из моря вылетает шмель, кружась около Лебедь-Птицы.
T:Общественное достояние
T:Общественное достояние
T:Общественное достояние
T:Общественное достояние
T:Общественное достояние
T:Общественное достояние
C:Никола́й Ри́мский-Ко́рсаков
Z:Общественное достояние
%%score 1 2 { 3 | ( 4 5 ) }
L:1/8
Q:1/4=144
M:2/4
K:C
V:1 treble nm="Soprano"
V:2 treble nm="A Clarinet"
V:3 treble nm="Piano"
V:4 bass 
V:5 bass 
V:1
"^Vivace.." z4 | z4 | z4 | z4 | z4 | z4 | z4 | z4 | z4 | z4 | z4 | z4 | z4 | z4 | z4 | z4 | z4 | %17
w: |||||||||||||||||
 z4 | z4 | z4 | z4 |"^Лебедь-Птица" z4 | A2 z A | _B3 B | A2 A2 | _B2- B z | %26
w: |||||Ну, те-|перь, мой|шмель, гу-|ляй _|
"^Лебедь-Птица" A2 _B2 | A2 A2 | A2 A2 | A2- A z | d3 d | ^c2 c2 | d2 d2 | ^c2 c2 | d2 ^c2 | d3 d | %36
w: Суд- но|мо- ре|до- го-|няй! _|По- ти-|хонь- ку|о- пус-|кай- ся|щель по-|даль- ше|
 d2 d2 | d2 d z | z4 | z4 | z4 | z4 | e4- | e2 e2 | e2 z e | e2- e z | z4 | e4 | %48
w: за- би-|вай- ся.|||||Будь|_ здо-|ров, Гви-|дон, _||ле-|
"^Лебедь-Птица" E2- E z | z4 | z4 | z4 | e4- | e2 e2 | e4- | e2 e2 | e4 | e4 | %58
w: ти! _||||Толь-|* ко|дол-|* го|не|гос-|
"^Шмель улетает." a4- | a2- a"^ЗАНАВЕС   (падает быстро)" z | z4 | z4 | z4 | z4 | z4 | z4 | z4 | %67
w: ти.|_ _||||||||
 z4 | z4 | z4 | z4 | z4 | z4 | z4 |: z4 | z4 | z4 | z4 | z4 | z4 | z4 | z4 | z4 | z4 | z4 |1 z4 :|2 %86
w: |||||||||||||||||||
 z4 || z4 | z4 | z4 | z4 | z4 | z4 | z4 | z4 | z4 | z4 | z4 | z4 | z4 | z4 | z4 | z4 |] %103
w: |||||||||||||||||
V:2
 z4 | z4 | z4 | z4 | z4 | z4 | z4 | z4 | z4 | z4 | z4 | z4 | z4 | z4 | z4 | z4 | z4 | z4 | z4 | %19
 z4 | z4 | z4 | z4 | z4 | z4 | z4 |[K:bass]"^Clar." (A,/_B,/A,/^G,/ A,/B,/A,/G,/ | %27
 A,/_B,/A,/^G,/ A,/B,/A,/G,/) | (A,/_B,/=B,/C/ ^C/=C/B,/_B,/ | A,/_B,/=B,/C/ ^C/=C/B,/_B,/ | %30
 A,) z z2 |[K:treble]"^Clar." z4 | z4 | z4 | (D/_E/D/^C/ D/E/D/C/ | D/_E/D/^C/ D/E/D/C/) | %36
 (D/_E/=E/F/ ^F/=F/E/_E/ | D/_E/=E/F/ ^F/=F/E/_E/ | D) z z2 | z4 | z4 | z4 | z4 | z4 | z4 | z4 | %46
 z4 | z4 | z4 | z4 | z4 | z4 | z4 | z4 | z4 | z4 | z4 | z4 | z4 | z4 | z4 | z4 | z4 | z4 | z4 | %65
 z4 | z4 | z4 | z4 | z4 | z4 | z4 | z4 | z4 |: z4 | z4 | z4 | z4 | z4 | z4 | z4 | z4 | z4 | z4 | %84
 z4 |1 z4 :|2 z4 || z4 | z4 | z4 | z4 |"^Clar." (A,/_B,/A,/^G,/ A,/B,/A,/G,/ | %92
 A,/_B,/A,/^G,/ A,) z |"^Fl." (E/F/E/^D/ E/F/E/D/ | E/F/E/^D/ E) z | [C_EGc] z z2 | z4 | z4 | z4 | %99
 z4 | z4 | z4 | z4 |] %103
V:3
 e'/^d'/=d'/^c'/ d'/c'/=c'/b/ | c'/b/_b/a/ ^g/=g/^f/=f/ |"_dim." e/^d/=d/^c/ d/c/=c/B/ | %3
 c/B/^A/=A/ ^G/=G/^F/=F/ | E/^D/=D/^C/ D/C/=C/B,/ | E/^D/=D/^C/ D/C/=C/B,/ | %6
!pp! E/^D/=D/^C/ =C/F/E/^D/ | E/^D/=D/^C/ =C/^C/D/^D/ | E/^D/=D/^C/ =C/F/E/^D/ | %9
 E/^D/=D/^C/ =C/^C/D/^D/ | E/^D/=D/^C/ D/C/=C/B,/ | C/^C/D/^D/ E/F/E/D/ | E/^D/=D/^C/ D/C/=C/B,/ | %13
 C/^C/D/^D/ E/^F/G/^G/ | A/^G/=G/^F/ =F/_B/A/^G/ | A/^G/=G/^F/ =F/^F/G/^G/ | %16
 A/^G/=G/^F/ =F/_B/A/^G/ | A/^G/=G/^F/ =F/^F/G/^G/ | A/^G/=G/^F/ G/F/=F/E/ | F/^F/G/^G/ A/_B/A/G/ | %20
 A/^G/=G/^F/ G/F/=F/E/ | F/^F/G/^G/ A/_B/A/G/ |!pp! A/A,/A,/A,/!<(! A,/A,/A,/A,/!<)! | z4 | %24
 A,/A,/A,/A,/!<(! A,/A,/A,/A,/!<)! | z4 | A,/A,/A,/A,/ z2 | x4 |!mf! ^C/A,/C/A,/ C/A,/C/A,/ | %29
 ^C/A,/C/A,/ C/A,/C/A,/ |!pp! D/D/D/D/!<(! D/D/D/D/!<)! | z4 | D/D/D/D/!<(! D/D/D/D/!<)! | z4 | %34
 D/D/D/D/ z2 | %35
[I:staff +1] D/[I:staff -1]D/[I:staff +1]^C/[I:staff -1]_E/[I:staff +1] =C/[I:staff -1]=E/[I:staff +1]B,/[I:staff -1]F/ | %36
!mf! ^F/D/F/D/ F/D/F/D/ | ^F/D/F/D/ F/D/F/D/ |!pp! d/^c/=c/=B/ _B/_e/d/^c/ | %39
 d/^c/=c/=B/ _B/=B/c/^c/ | d/^c/=c/B/ c/B/_B/A/ | _B/=B/c/^c/ =c/^c/d/^d/ | e/^d/=d/^c/ d/c/=c/B/ | %43
 c/B/_B/A/ ^G/=G/^F/=F/ | E/F/E/^D/ z/ F/E/D/ | E/F/E/^D/ E/F/E/D/ | z/ F/E/^D/ z/ F/E/D/ | %47
 E/F/E/^D/ E/F/E/D/ | E/^D/=D/^C/ D/C/=C/B,/ |[I:staff +1] C/B,/_B,/A,/ ^G,/=G,/^F,/=F,/ | %50
[I:staff -1] z2 .[ee'].[cc'] | .[Aa].[Ff] .[Aa].[cc'] | .[ee']2 .[ee'].[cc'] | %53
 .[Aa].[Ff] .[Aa].[cc'] | .[ee'] z"_cresc." z2 | z2 z/ F/^F/G/ | ^G/A/^A/B/ c/^c/d/^d/ | %57
 e/f/e/^d/ e/f/e/d/ |!mf! e/^d/=d/^c/ =c/f/e/^d/ | e/^d/=d/^c/ =c/^c/d/^d/ | %60
 e/^d/=d/^c/ =c/f/e/^d/ | e/^d/=d/^c/ =c/^c/d/^d/ | e/^d/=d/^c/ d/c/=c/B/ | c/^c/d/^d/ e/f/e/d/ | %64
 e/^d/=d/^c/ d/c/=c/B/ | c/^c/d/^d/ e/^f/g/^g/ | a/^g/=g/^f/ =f/_b/a/^g/ | %67
 a/^g/=g/^f/ =f/^f/g/^g/ | a/^g/=g/^f/ =f/_b/a/^g/ | a/^g/=g/^f/ =f/^f/g/^g/ | %70
 a/^g/=g/^f/ g/f/=f/e/ | f/^f/g/^g/ a/_b/a/g/ |"_cresc." a/^g/=g/^f/ =f/^f/g/^g/ | %73
 a/b/c'/d'/ e'/f'/e'/^d'/ |:!f! e'/^d'/=d'/^c'/ =c'/f'/e'/^d'/ | e'/^d'/=d'/^c'/ =c'/^c'/d'/^d'/ | %76
 e'/^d'/=d'/^c'/ =c'/f'/e'/^d'/ | e'/^d'/=d'/^c'/ =c'/^c'/d'/^d'/ | e'!mf!^G/A/ _B/=B/c/^c/ | %79
 d/^c/=c/B/ c/B/_B/A/ | ^G/A/^A/B/ c/^c/d/^d/ | e/f/e/^d/ e/f/e/d/ | e^G/A/ _B/=B/c/^c/ | %83
 d/^c/=c/B/ c/B/_B/A/ | ^G/A/^A/=B/ c/^c/d/^d/ |1 e/^f/^g/a/ b/c'/d'/e'/ :|2 %86
 e/f/e/^d/ e/^f/g/^g/ ||!f! a/^g/=g/^f/"_dim." g/f/=f/e/ | f/e/^d/=d/ ^c/=c/B/_B/ | %89
!mf! A/^G/=G/^F/"_dim." G/F/=F/E/ | F/E/^D/=D/ ^C/=C/B,/_B,/ | z/!<(! A,/A,/A,/!<)! z2 | %92
[I:staff +1] A,/[I:staff -1]A,/[I:staff +1]^G,/[I:staff -1]B,/[I:staff +1] =G,/[I:staff -1]^C/[I:staff +1]=F,/[I:staff -1]D/ | %93
 z/!<(! E/E/E/!<)! !>!F/^D/F/D/ | %94
[I:staff +1] E,/[I:staff -1]E/[I:staff +1][=D,E,]/[I:staff -1][E^F]/[I:staff +1] [C,E,]/[I:staff -1][EG]/[I:staff +1][B,,E,]/[I:staff -1][D^G]/ | %95
 [CA] z!pp!"_m.d."[I:staff +1] (E,/=F,/^F,/G,/ | ^G,/A,/_B,/=B,/[I:staff -1] C/^C/D/^D/ | %97
 E/F/^F/G/ ^G/A/_B/=B/ | c/^c/d/^d/ e/^f/g/^g/ | a) z z2 | .[CEA]2 z2 | .A,2 z2 | !fermata!z4 |] %103
V:4
 [E,^G,B,D] z z2 | z4 | [E,,B,,D,^G,] z z2 | z4 | z4 | z4 | [A,,E,C] z z2 | %7
 [A,,E,C] z [D,^F,A,] z | [A,,E,C] z z2 | [A,,E,C] z [D,^F,A,] z | [A,,E,C] z [=F,A,] z | %11
 [E,A,] z [D,E,^G,B,] z | [C,E,A,] z [F,A,] z | [E,A,] z [D,E,^G,B,] z | [^C,=G,A,] z [D,F,A,] z | %15
 [F,A,D] z [D,G,=B,] z | [F,A,D] z z2 | [F,A,D] z [D,G,=B,] z | [F,A,D] z [G,_B,D] z | %19
 [F,A,D] z [E,G,A,^C] z | [F,A,D] z [D,G,_B,] z | [D,F,A,] z [^C,E,G,A,] z | [D,F,A,] z z2 | %23
 !>!_B,/^G,/B,/G,/ B,/G,/B,/G,/ | z4 | !>!_B,/^G,/B,/G,/ B,/G,/B,/G,/ | z2 !>!_B,/^G,/B,/G,/ | %27
!<(! A,/[I:staff -1]A,/[I:staff +1]^G,/[I:staff -1]_B,/[I:staff +1] =G,/[I:staff -1]=B,/[I:staff +1]^F,/[I:staff -1]C/!<)! | %28
[I:staff +1] =F,4- | F,4 | [^F,A,] z z2 |[K:treble]!<(! !>!_E/^C/E/C/ E/C/E/C/!<)! | z4 | %33
 !>!_E/^C/E/C/ E/C/E/C/ | z2 !>!_E/^C/E/C/ |!<(! x4!<)! |[K:bass] _B,4- | B,4 | [G,_B,D] z z2 | %39
[K:treble] [_B,DG] z [C_EG] z | [_B,DG] z[K:bass] [^F,C_E] z | [G,_B,D] z [=F,A,D] z | %42
 [E,^G,D] z z2 | z4 | z2 .E.C | .A,.F, .A,.C | .E2 .E.C | .A,.F, .A,.C | %48
[I:staff -1] E[I:staff +1] z z2 | z4 | E,/F,/E,/^D,/ E,/F,/E,/D,/ | E,/F,/E,/^D,/ E,/F,/E,/D,/ | %52
 E,/F,/E,/^D,/ E,/F,/E,/D,/ | E,/F,/E,/^D,/ E,/F,/E,/D,/ | E,/F,/^F,/G,/ ^G,/A,/^A,/B,/ | %55
 C/^C/D/^D/ E/ z/ z | z4 | z4 | [A,,E,C] z z2 | [A,,E,C] z [^F,,D,A,] z | [A,,E,C] z z2 | %61
 [A,,E,C] z [^F,,D,A,] z | [A,,E,C] z [=F,A,D] z | [E,A,C] z [D,E,^G,B,] z | [C,A,E] z [F,A,D] z | %65
 [E,A,C] z [D,E,^G,B,] z | [^C,A,E] z [D,A,F] z | [D,A,F] z [=B,,G,D] z | [D,A,F] z z2 | %69
 [D,A,F] z [=B,,G,D] z | [D,A,F] z [_B,,G,D] z | [A,,F,D] z [G,,^C,E,A,] z | %72
 [F,,D,A,] z [D,F,A,] z | [C,E,A,] z [B,,D,^G,B,] z |: [A,,E,C][E,C] z2 | [A,,E,C] z [^F,,D,A,] z | %76
 [A,,E,C][E,C] z2 | [A,,E,C] z [^F,,D,A,] z | [A,,E,C] z z2 | [F,A,] z z2 | [E,CA] z z2 | %81
 [E,^G,DE] z z2 | [A,CE] z z2 | [F,A,] z z2 | [E,CA] z z2 |1 [E,^G,DE] z z2 :|2 [E,^G,DE] z z2 || %87
 [A,CE] z [A,^CG] z | [A,DF] z z2 | [A,,C,E,] z [A,,^C,G,] z | [A,,D,F,] z z2 | %91
 [A,,A,]/ z/ z !>!_B,/^G,/B,/G,/ | x4 | [E,E]/ z/ z !>!^D,/F,/D,/F,/ | x4 | [A,,E,] z z2 | z4 | %97
 .[A,,C,E,A,] z z2 | .[A,,C,E,A,] z z2 | .[A,,C,E,A,] z z2 | .A,2 z2 | .[A,,,A,,]2 z2 | %102
 !fermata!z4 |] %103
V:5
 x4 | x4 | x4 | x4 | x4 | x4 | x4 | x4 | x4 | x4 | x4 | x4 | x4 | x4 | x4 | x4 | x4 | x4 | x4 | %19
 x4 | x4 | x4 | x4 | x4 | x4 | x4 | x4 | x4 | x4 | x4 | x4 |[K:treble] x4 | x4 | x4 | x4 | x4 | %36
[K:bass] x4 | x4 | x4 |[K:treble] x4 | x2[K:bass] x2 | x4 | x4 | x4 | x4 | x4 | x4 | x4 | x4 | x4 | %50
 x4 | x4 | x4 | x4 | x4 | x4 | x4 | x4 | x4 | x4 | x4 | x4 | x4 | x4 | x4 | x4 | x4 | x4 | x4 | %69
 x4 | x4 | x4 | x4 | x4 |: x4 | x4 | x4 | x4 | x2 .A.F | .D.B, .D.F | x4 | x4 | x2 .A.F | %83
 .D.B, .D.F | x4 |1 x4 :|2 x4 || x4 | x4 | x4 | x4 | x4 | x4 | x4 | x4 | x4 | x4 | x4 | x4 | x4 | %100
 x4 | x4 | x4 |] %103

